X: 2
T: O'Sullivan's March
R: jig
M: 6/8
L: 1/8
K: Gmaj
DBA B2d|edB AGF|GBA B3|AGE EGE|DBA B2d|edB AGF|GBA B3|AGF G3:|e2g edg|edg ed^c|d3 dge|dge dBG|cEc dFd|gdB AGF|GBA B3|AGF G3:|


Tune 2204	Setting 15573

